X: 49
T: Song of the Old Wolf
C: Teton Sioux band 1911-1914
N: Derived from sioux049.krn
O: South Dakota, U.S.A.
N: Teton Sioux Music by Frances Densmore, 1918
Z: transcribed to **kern format by Craig Sapp
L: 1/8
M: 2/4
Q: 1/4=58
K: A clef=bass
%%linebreak <none>
C/ [I:setbarnb 1]| 
E> C C3/ C/ | 
C2C G, | 
C> C C3/ C/ | 
(3C B, C A,3/ B,/ ||  
[M:3/4](3B, B, B,B,2(3A, A, A, ||  
[M:2/4]B,> A, F,3/ F,/ | 
F,2F,2 | 
A,2(3C C A, | 
(3A, F,- F, F,3/ F,/ ||  
[M:3/4]F,2(3E, C, C, C,3/ C,/ ||  
[M:2/4]F,> E, E,/ C,/ C,/ C,/ | 
C,2C,2 | 
(3E, E, E, E,/ C,/ C,/ C,/ | 
C,2C,2 |]  



